_icons/SVG/648-meloetta-pirouette.svg

<svg xmlns="http://www.w3.org/2000/svg" viewBox="0 0 32 32"><title>648-meloetta-pirouette</title><path d="M12.27463,31.72011c.9393-3.27174,1.8646-5.899,2.75465-6.902l-1.568-1.82643A20.847,20.847,0,0,0,12.27463,31.72011Z" style="fill:#edeeee"/><path d="M15.5245,14.38747l-.23882,1.65943-4.83725,3.50941c-2.592.08442-3.94629,1.14523-3.40465,2.38314.86665,1.24312,2.55979.24624,3.71764-1.64045l3.587-2.81659-.36813,2.28618h.00007c0,.3689,1.01646.55,2.01968.54509V14.45049Z" style="fill:#757f7e"/><path d="M13.98032,19.76859h-.00007l-.41425,2.5731c0,.29916,1.217.449,2.434.449v-2.477C14.99678,20.31857,13.98032,20.13749,13.98032,19.76859Z" style="fill:#e9746a"/><path d="M18.43392,22.34169l-.492-2.5731c0,.35911-.96469.54019-1.94191.54509v2.477C17.217,22.79073,18.43392,22.64085,18.43392,22.34169Z" style="fill:#e7685f"/><path d="M16.4755,14.38747l.23882,1.65943,4.83725,3.50941c2.592.08442,3.94629,1.14523,3.40465,2.38314-.86665,1.24312-2.55979.24624-3.71764-1.64045l-3.587-2.81659.36813,2.28618h-.00007c0,.3689-1.01646.55-2.01968.54509V14.45049Z" style="fill:#757f7e"/><path d="M15.98866,8.35569a9.95849,9.95849,0,0,1-4.306-.85552,4.79351,4.79351,0,0,0-.92123,2.78956,5.12273,5.12273,0,0,0,5.22722,5.01113L16,15.2996V8.35518Z" style="fill:#f7f7f7"/><path d="M16,15.2996a5.12118,5.12118,0,0,0,5.21594-5.00987c0-.08089-.01575-.15724-.02-.23738H16Z" style="fill:#edeeee"/><path d="M16,8.35518v1.69717h5.196a4.82757,4.82757,0,0,0-.90125-2.55218A9.94965,9.94965,0,0,1,16,8.35518Z" style="fill:#edeeee"/><path d="M15.98866,8.08832a10.20964,10.20964,0,0,1-4.17288-.78823c-.04939.0635-.08668.13456-.13311.20008a9.95849,9.95849,0,0,0,4.306.85552L16,8.35518V8.08782Z" style="fill:#909997"/><path d="M20.16154,7.30009A10.20223,10.20223,0,0,1,16,8.08782v.26736a9.94965,9.94965,0,0,0,4.29472-.855C20.24829,7.43465,20.21093,7.36359,20.16154,7.30009Z" style="fill:#838c8a"/><path d="M15.98866,5.27885a5.2786,5.2786,0,0,0-4.17288,2.02124,10.20964,10.20964,0,0,0,4.17288.78823L16,8.08782V5.27936Z" style="fill:#f7f7f7"/><path d="M16,5.27936V8.08782a10.20223,10.20223,0,0,0,4.16154-.78773A5.27881,5.27881,0,0,0,16,5.27936Z" style="fill:#edeeee"/><ellipse cx="13.46132" cy="10.50131" rx="1.02743" ry="1.36991" style="fill:#ec8179"/><path d="M19.55846,10.05235a1.093,1.093,0,0,0-.9594-.92078,1.093,1.093,0,0,0-.95953.92078,1.74451,1.74451,0,0,0-.068.4488c0,.75674.46,1.37009,1.02751,1.37009.56736,0,1.02737-.61335,1.02737-1.37009A1.74451,1.74451,0,0,0,19.55846,10.05235Z" style="fill:#e9746a"/><path d="M15.98866,7.14864c-.38819,0-.703.476-.703,1.06366,0,.58714.31481,1.06316.703,1.06316L16,9.27218V7.15192Z" style="fill:#ec8179"/><path d="M16.69166,8.2123c0-.5816-.30895-1.05031-.69166-1.06038V9.27218C16.38271,9.26236,16.69166,8.7934,16.69166,8.2123Z" style="fill:#e9746a"/><ellipse cx="13.20378" cy="10.09964" rx="0.31712" ry="0.40167" style="fill:#fff"/><path d="M18.59906,10.09948c0,.222.13034.40167.29117.40167s.29118-.17967.29118-.40167c0-.01664-.00542-.03075-.00687-.04713h-.56862C18.60447,10.06873,18.59906,10.08284,18.59906,10.09948Z" style="fill:#fff"/><path d="M18.89023,9.69805c-.14874,0-.26673.156-.28431.3543h.56862C19.157,9.854,19.039,9.69805,18.89023,9.69805Z" style="fill:#fff"/><path d="M19.72537,31.72011c-.9393-3.27174-1.8646-5.899-2.75465-6.902l1.568-1.82643A20.847,20.847,0,0,1,19.72537,31.72011Z" style="fill:#edeeee"/><path d="M18.434,22.34167c.35315-.84541,3.44457,2.09677,6.31213,1.42518C24.7787,25.03841,16.03257,25.91259,16,24.641v-1.8503C17.217,22.79073,18.434,22.64091,18.434,22.34167Z" style="fill:#757f7e"/><path d="M13.566,22.34167c-.35315-.84541-3.44457,2.09677-6.31212,1.42518C7.22129,25.03841,15.96742,25.91259,16,24.641v-1.8503C14.783,22.79073,13.566,22.64091,13.566,22.34167Z" style="fill:#757f7e"/><path d="M11.46287,4.69322V7.82776c0-.52037,2.26856-.78042,4.53713-.78042V4.17915C13.73143,4.17915,11.46287,4.35051,11.46287,4.69322Z" style="fill:#ed8c86"/><path d="M20.53713,7.82776V4.69322c0-.34271-2.26856-.51407-4.53713-.51407V7.04734C18.26857,7.04734,20.53713,7.30739,20.53713,7.82776Z" style="fill:#ec8179"/><path d="M8.39466.60867a5.29529,5.29529,0,0,0-.43512,2.97427c.33275.69071,1.76306,1.03871,3.72313,1.22141,1.287-.05468,2.81369-.22478,4.31733-.3039V1.17615C12.96141,1.23109,9.62011,1.3528,8.39466.60867Z" style="fill:#f09a94"/><path d="M21.01378,5.074c.53006.44527.97219-1.40662.7316-2.69758C22.16028,1.13558,19.2538,1.11744,16,1.17615v3.3243A10.842,10.842,0,0,1,21.01378,5.074Z" style="fill:#ed8c86"/><path d="M11.06681,2.69073c-1.06569.37512-1.06559,2.66066,0,2.74673-.09916,1.06593,0,1.86267.599,1.86267.67261,0,.79085-.44741.80982-.826,0-.65739-.96534-.47573-.70439.259-.28522.09761-.49272-.01578-.29979-1.21476a1.46465,1.46465,0,0,0,.4697-2.61239A2.788,2.788,0,0,0,13.35019.25466a3.18759,3.18759,0,0,0-1.76671,1.84642,2.10685,2.10685,0,0,0-.8571-2.381A3.5446,3.5446,0,0,0,11.06681,2.69073Z" style="fill:#838c8a"/></svg>

<svg xmlns="http://www.w3.org/2000/svg" viewBox="0 0 32 32"><path d="M12.275 31.72c.939-3.272 1.864-5.899 2.754-6.902l-1.568-1.826a20.847 20.847 0 00-1.186 8.728z" fill="#edeeee"/><path d="M15.524 14.387l-.238 1.66-4.838 3.51c-2.592.084-3.946 1.145-3.404 2.382.866 1.244 2.56.247 3.717-1.64l3.587-2.817-.368 2.287c0 .368 1.017.55 2.02.545V14.45z" fill="#757f7e"/><path d="M13.98 19.769l-.414 2.573c0 .299 1.217.449 2.434.449v-2.477c-1.003.005-2.02-.177-2.02-.545z" fill="#e9746a"/><path d="M18.434 22.342l-.492-2.573c0 .359-.965.54-1.942.545v2.477c1.217 0 2.434-.15 2.434-.45z" fill="#e7685f"/><path d="M16.476 14.387l.238 1.66 4.838 3.51c2.592.084 3.946 1.145 3.404 2.382-.866 1.244-2.56.247-3.717-1.64l-3.587-2.817.368 2.287c0 .368-1.017.55-2.02.545V14.45z" fill="#757f7e"/><path d="M15.989 8.356a9.958 9.958 0 01-4.306-.856 4.794 4.794 0 00-.922 2.79 5.123 5.123 0 005.228 5.01H16V8.355z" fill="#f7f7f7"/><path d="M16 15.3a5.121 5.121 0 005.216-5.01c0-.081-.016-.158-.02-.238H16zm0-6.945v1.697h5.196a4.828 4.828 0 00-.901-2.552A9.95 9.95 0 0116 8.355z" fill="#edeeee"/><path d="M15.989 8.088a10.21 10.21 0 01-4.173-.788c-.05.064-.087.135-.133.2a9.958 9.958 0 004.306.856H16v-.268z" fill="#909997"/><path d="M20.162 7.3A10.202 10.202 0 0116 8.088v.267a9.95 9.95 0 004.295-.855c-.047-.065-.084-.136-.133-.2z" fill="#838c8a"/><path d="M15.989 5.279A5.279 5.279 0 0011.816 7.3a10.21 10.21 0 004.173.788H16V5.279z" fill="#f7f7f7"/><path d="M16 5.28v2.808a10.202 10.202 0 004.162-.788A5.279 5.279 0 0016 5.28z" fill="#edeeee"/><ellipse cx="13.461" cy="10.501" rx="1.027" ry="1.37" fill="#ec8179"/><path d="M19.558 10.052a1.093 1.093 0 00-.959-.92 1.093 1.093 0 00-.96.92 1.745 1.745 0 00-.067.45c0 .756.46 1.37 1.027 1.37s1.027-.614 1.027-1.37a1.745 1.745 0 00-.068-.45z" fill="#e9746a"/><path d="M15.989 7.149c-.389 0-.703.476-.703 1.063s.314 1.063.703 1.063L16 9.272v-2.12z" fill="#ec8179"/><path d="M16.692 8.212c0-.581-.31-1.05-.692-1.06v2.12c.383-.01.692-.479.692-1.06z" fill="#e9746a"/><ellipse cx="13.204" cy="10.1" rx=".317" ry=".402" fill="#fff"/><path d="M18.6 10.1c0 .221.13.401.29.401s.291-.18.291-.402c0-.016-.005-.03-.006-.047h-.57c0 .017-.006.03-.006.047zm.29-.402c-.149 0-.267.156-.284.354h.569c-.018-.198-.136-.354-.285-.354z" fill="#fff"/><path d="M19.725 31.72c-.939-3.272-1.864-5.899-2.754-6.902l1.568-1.826a20.847 20.847 0 011.186 8.728z" fill="#edeeee"/><path d="M18.434 22.342c.353-.846 3.445 2.096 6.312 1.425.033 1.271-8.713 2.146-8.746.874v-1.85c1.217 0 2.434-.15 2.434-.45zm-4.868 0c-.353-.846-3.445 2.096-6.312 1.425-.033 1.271 8.713 2.146 8.746.874v-1.85c-1.217 0-2.434-.15-2.434-.45z" fill="#757f7e"/><path d="M11.463 4.693v3.135c0-.52 2.268-.78 4.537-.78v-2.87c-2.269 0-4.537.172-4.537.514z" fill="#ed8c86"/><path d="M20.537 7.828V4.693c0-.342-2.268-.514-4.537-.514v2.868c2.269 0 4.537.26 4.537.78z" fill="#ec8179"/><path d="M8.395.609a5.295 5.295 0 00-.435 2.974c.332.69 1.763 1.039 3.723 1.221C12.97 4.75 14.496 4.58 16 4.5V1.176c-3.039.055-6.38.177-7.605-.567z" fill="#f09a94"/><path d="M21.014 5.074c.53.445.972-1.407.731-2.698.415-1.24-2.491-1.259-5.745-1.2V4.5a10.842 10.842 0 015.014.574z" fill="#ed8c86"/><path d="M11.067 2.69c-1.066.376-1.066 2.661 0 2.747-.1 1.066 0 1.863.599 1.863.672 0 .79-.447.81-.826 0-.657-.966-.476-.705.26-.285.097-.492-.017-.3-1.216a1.465 1.465 0 00.47-2.612 2.788 2.788 0 001.41-2.651A3.188 3.188 0 0011.582 2.1a2.107 2.107 0 00-.857-2.38 3.545 3.545 0 00.34 2.97z" fill="#838c8a"/></svg>
